X:2152
T:And the world it went well with me then 
C:Charles Clague, Ballaclague 
C:Traditional
O:Isle of Man
Z:Clague collection
B:Kiaull Vannin #152 
M:4/4 
L:1/8 
Q:120 
K:D 
A2|d2 dd dA FG|A2 AB A2 de|f2 fg fe de|f6 de| 
fa gf e2 fe|dc dB BA AA|Bc de A2 Bc|d6|| 

